X: 34307
T: Retirement, The
R: reel
M: 4/4
K: Dmajor
D3-|:"G"DEGAB2AB|dBBB AGEG|DEGA BAB/c/ d|eBBB "D"dggf|
"Em"egedB2AB|"Am"eBBB AGEG|"D"DEGA "C"BedB|1 "D"AGBA "G"G2GE:|2 "D"AGBA "G"GBAG||
|:"D"F2DF ABcA|"G"BGGF GBAG|"D"FADF ABcA|"G"BBBA GAB/c/d|
[1"Em"eged B2AB|"Cmaj7"eBBB AGEG|"D"DEGA "Em"BedB|"D"AGBA "G"GBAG:|
[2"Em"eged B2AB|"Cmaj7"eBBB defg-|"G"ged"Em"e2dBd-|"G"dBGB "D"A4||

